X: 52
T: Bisero Cerko
O: Macedonia
M: 7/8
L: 1/8
Q:1/4=108
K: Ephr^G
%%MIDI gchord fzzczcz
%%MIDI program 21 Harmonica
"Em"B2B B2B2|"Am"c2B A2GA|"Em"B2A GABA|G2F E2E2|
"Em"E2F G2A2|G2F E2F2|"Dm"F2E D4-|D7|
"Em"E2F G2A2|G2F E2D2|E2F G2A2|G2F E2D2|
G2F "Dm"E2D2|"Em"E7-|E7|



